X: 1524
T: Nur-i Fahr-i
C: Dede Efendi
O: Turkey
F: http://compmusic.upf.edu/node/140
N: huseyni--ilahi--yuruksemai--nur-i_fahr-i--dede_efendi
N: makam= huseyni
N: form= ilahi
N: usul= yuruksemai = 6/8
M: 6/8
L: 1/16
K: C _2/4B ^3/4f  
Q: 1/4=90
%%MIDI tuningsystem comma53
d8 e4e8e4  | e4g4 ^f2e2e8z4  | d8 e4e4 ^f2e4e2  | \
w:   |   |   | 
d2d4e6^f2ed d2c2d2c2  | 
w:   | 
_1/4B2c4d4e2d4 e4e4  | =f2e4e4e4g4^f2e2e8z4e4f2 e4f4  | \
w:   |   | 
g4a2g4a4a4g4^f4g6 a2gfe4 f2e2f4  | 
w:   | 
g3ag4 ^f4g2f2 e2e12z4z8d8e4e8e4e4g4f2e2e8z4d8e4e4f2e4 e2d2d4  | 
w:   | 
e4=f2e2 d2d2c2d2 c2_1/4B2c4  | d4e2d4e4c4d2c4  | \
w:   |   | 
d4c4 c4_1/4B2A2 A8  | 
w:   | 
z4A8_1/4B4 c4d2c4d4d4c4B4c4d2  | c2_1/4B2A4 B2A2B4 c3dc4  | 
w:   |   | 
_1/4B4c2B2 A2A12z4z8g8a4a8a4a4c'4_1/4b2a2a8z4g8a4a8^f4g4a4g2f2a2  | 
w:   | 
g2^f2e2d4e4d4^c4d4c4d4e12(3gfe  | \
w:   | 
^f12g4 a2g4a4a4g4f4g4c'4_1/4b2  | 
w:   | 
a2a8z4d8a4a8z4^f4g4f4e4d4^c4d4c4d4e8z4_1/4b4a4^g4g2f2f4f2e2e12e4g4f2e2e12z4z8d8e4e8e4e4=g4f2  | 
w:   | 
e2e8z4d8e4e4^f2 e4e2d2 d4e4  | =f2e2d2d2 c2d2c2_1/4B2 c4d4  | 
w:   |   | 
e2d4e4c4d2 c4d4  | c4c4 _1/4B2A2A8z4  | \
w:   |   | 
A8 _1/4B4c4 d2c4d4d4c4B4c4d2c2B2  | 
w:   | 
A4_1/4B2A2 B4c3d c4B4  | c2_1/4B2A2A12z4z8g8a4a8a4a4c'4_1/4b2 a2a8z4g8a4a8^f4g4a4g2 f2a2g2f2  | 
w:   |   | 
e2d4e4d4^c4d4c4d4e12(3g^fef12 g4a2g4a4a4g4f4g4c'4_1/4b2a2a8z4d8a4a8z4f4g4f4e4d4c4d4c4d4e8z4b4a4^g4g2  | 
w:   | 
^f2f4f2 e2e12e4^g4f2 e2e12z4z8|
w:   | 


